; LightBurn 0.9.24
; Marlin device profile, absolute coords
; Bounds: X5 Y4 to X110 Y110
G21
G90
; Cut @ 100 mm/sec, 20% power
M8
M05 
G0X11 Y10 F0
G0 Z0
; Layer C00
M03 S51
G1 Y110 F6000
G1X17 Y103
G1X11 Y102.83
G1X5 Y103
G1X11 Y110
G1 Y10
M05 
G0X11 Y10 F0
; Layer C00
M03 S51
G1X110 F6000
G1X103 Y17
G1 Y4
G1X110 Y10
G1X11
M05 
G0X20.43 Y19.49 F0
; Layer C00
M03 S51
G1X20.18 Y19.61 F6000
G1X19.94 Y19.76
G1X19.71 Y19.92
G1X19.5 Y20.11
G1X19.14 Y20.5
G1X18.83 Y20.94
G1X18.67 Y21.25
G1X18.53 Y21.58
G1X18.42 Y21.91
G1X18.33 Y22.25
G1X18.21 Y22.83
G1X18.11 Y23.42
G1X18.04 Y24
G1X17.99 Y24.59
G1X17.93 Y25.72
G1 Y26.84
G1X17.96 Y27.97
G1X18.04 Y29.09
G1X18.1 Y29.67
G1X18.19 Y30.24
G1X18.31 Y30.8
G1X18.46 Y31.36
G1X18.57 Y31.7
G1X18.71 Y32.03
G1X18.87 Y32.35
G1X19.06 Y32.65
G1X19.29 Y32.95
G1X19.55 Y33.22
G1X19.82 Y33.43
G1X20.11 Y33.61
G1X20.43 Y33.75
G1X20.76 Y33.86
G1X21.03 Y33.9
G1X21.3 Y33.93
G1X21.58
G1X21.86 Y33.91
G1X22.21 Y33.85
G1X22.56 Y33.73
G1X22.81 Y33.61
G1X23.06 Y33.47
G1X23.29 Y33.3
G1X23.5 Y33.12
G1X23.79 Y32.82
G1X24.05 Y32.49
G1X24.22 Y32.2
G1X24.37 Y31.91
G1X24.49 Y31.6
G1X24.59 Y31.29
G1X24.75 Y30.63
G1X24.87 Y29.97
G1X24.96 Y29.31
G1X25.01 Y28.64
G1X25.07 Y27.41
G1 Y26.18
G1X25.03 Y24.95
G1X24.93 Y23.73
G1X24.87 Y23.2
G1X24.77 Y22.69
G1X24.65 Y22.17
G1X24.5 Y21.67
G1X24.3 Y21.19
G1X24.05 Y20.75
G1X23.79 Y20.42
G1X23.5 Y20.11
G1X23.21 Y19.86
G1X22.89 Y19.65
G1X22.57 Y19.49
G1X22.22 Y19.38
G1X21.86 Y19.31
G1X21.5 Y19.29
G1X21.13 Y19.31
G1X20.78 Y19.38
G1X20.43 Y19.49
M05 
G0X18.79 Y18.15 F0
; Layer C00
M03 S51
G1X19.12 Y17.98 F6000
G1X19.45 Y17.84
G1X19.95 Y17.68
G1X20.46 Y17.57
G1X20.98 Y17.5
G1X21.5 Y17.48
G1X21.98 Y17.5
G1X22.42 Y17.54
G1X22.85 Y17.62
G1X23.28 Y17.74
G1X23.7 Y17.89
G1X24.16 Y18.13
G1X24.59 Y18.41
G1X25 Y18.74
G1X25.36 Y19.12
G1X25.71 Y19.57
G1X26.02 Y20.04
G1X26.29 Y20.54
G1X26.52 Y21.06
G1X26.7 Y21.57
G1X26.86 Y22.09
G1X26.98 Y22.62
G1X27.08 Y23.15
G1X27.2 Y24.01
G1X27.28 Y24.87
G1X27.33 Y25.74
G1 Y26.61
G1 Y27.46
G1X27.29 Y28.3
G1X27.22 Y29.15
G1X27.11 Y29.99
G1X26.94 Y30.83
G1X26.7 Y31.66
G1X26.38 Y32.45
G1X26 Y33.22
G1X25.7 Y33.69
G1X25.36 Y34.12
G1X24.97 Y34.51
G1X24.55 Y34.85
G1X24.08 Y35.15
G1X23.59 Y35.38
G1X23.07 Y35.56
G1X22.53 Y35.67
G1X21.93 Y35.74
G1X21.33 Y35.75
G1X20.73 Y35.71
G1X20.13 Y35.61
G1X19.72 Y35.5
G1X19.33 Y35.35
G1X18.95 Y35.17
G1X18.59 Y34.95
G1X18.17 Y34.63
G1X17.79 Y34.27
G1X17.44 Y33.87
G1X17.13 Y33.43
G1X16.83 Y32.91
G1X16.56 Y32.36
G1X16.34 Y31.8
G1X16.17 Y31.22
G1X16.03 Y30.62
G1X15.91 Y30.03
G1X15.82 Y29.42
G1X15.76 Y28.82
G1X15.69 Y27.68
G1X15.66 Y26.54
G1X15.69 Y25.4
G1X15.78 Y24.27
G1X15.86 Y23.54
G1X15.99 Y22.82
G1X16.15 Y22.11
G1X16.36 Y21.41
G1X16.53 Y20.94
G1X16.73 Y20.49
G1X16.96 Y20.05
G1X17.22 Y19.63
G1X17.44 Y19.33
G1X17.67 Y19.05
G1X17.93 Y18.8
G1X18.2 Y18.56
G1X18.49 Y18.35
G1X18.79 Y18.15
M05 
G0X30.85 Y17.79 F0
; Layer C00
M03 S51
G1X32.09 F6000
G1X32.08 Y17.44
G1X32.04 Y17.09
G1X31.97 Y16.75
G1X31.87 Y16.41
G1X31.81 Y16.24
G1X31.73 Y16.08
G1X31.54 Y15.81
G1X31.31 Y15.56
G1X31.03 Y15.36
G1X30.7 Y15.18
G1X31.31 Y14.25
G1X31.57 Y14.37
G1X31.91 Y14.56
G1X32.21 Y14.79
G1X32.49 Y15.05
G1X32.73 Y15.35
G1X32.93 Y15.7
G1X33.09 Y16.06
G1X33.21 Y16.44
G1X33.29 Y16.82
G1X33.34 Y17.3
G1X33.35 Y17.79
G1 Y20.29
G1X30.85
G1 Y17.79
M05 
G0X40.14 Y20.5 F0
; Layer C00
M03 S51
G1X39.83 Y20.94 F6000
G1X39.67 Y21.25
G1X39.53 Y21.58
G1X39.42 Y21.91
G1X39.33 Y22.25
G1X39.21 Y22.83
G1X39.11 Y23.42
G1X39.04 Y24
G1X38.99 Y24.59
G1X38.93 Y25.72
G1 Y26.84
G1X38.96 Y27.97
G1X39.04 Y29.09
G1X39.1 Y29.67
G1X39.19 Y30.24
G1X39.31 Y30.8
G1X39.46 Y31.36
G1X39.57 Y31.7
G1X39.71 Y32.03
G1X39.87 Y32.35
G1X40.06 Y32.65
G1X40.29 Y32.95
G1X40.55 Y33.22
G1X40.82 Y33.43
G1X41.11 Y33.61
G1X41.43 Y33.75
G1X41.76 Y33.86
G1X42.03 Y33.9
G1X42.3 Y33.93
G1X42.58
G1X42.86 Y33.91
G1X43.21 Y33.85
G1X43.56 Y33.73
G1X43.81 Y33.61
G1X44.06 Y33.47
G1X44.29 Y33.3
G1X44.5 Y33.12
G1X44.79 Y32.82
G1X45.05 Y32.49
G1X45.22 Y32.2
G1X45.37 Y31.91
G1X45.49 Y31.6
G1X45.59 Y31.29
G1X45.75 Y30.63
G1X45.87 Y29.97
G1X45.96 Y29.31
G1X46.01 Y28.64
G1X46.07 Y27.41
G1 Y26.18
G1X46.03 Y24.95
G1X45.93 Y23.73
G1X45.87 Y23.2
G1X45.77 Y22.69
G1X45.65 Y22.17
G1X45.5 Y21.67
G1X45.3 Y21.19
G1X45.05 Y20.75
G1X44.79 Y20.42
G1X44.5 Y20.11
G1X44.21 Y19.86
G1X43.89 Y19.65
G1X43.57 Y19.49
G1X43.22 Y19.38
G1X42.86 Y19.31
G1X42.5 Y19.29
G1X42.13 Y19.31
G1X41.78 Y19.38
G1X41.43 Y19.49
G1X41.18 Y19.61
G1X40.94 Y19.76
G1X40.71 Y19.92
G1X40.5 Y20.11
G1X40.14 Y20.5
M05 
G0X37.96 Y20.05 F0
; Layer C00
M03 S51
G1X38.22 Y19.63 F6000
G1X38.44 Y19.33
G1X38.67 Y19.05
G1X38.93 Y18.8
G1X39.2 Y18.56
G1X39.49 Y18.35
G1X39.79 Y18.15
G1X40.12 Y17.98
G1X40.45 Y17.84
G1X40.95 Y17.68
G1X41.46 Y17.57
G1X41.98 Y17.5
G1X42.5 Y17.48
G1X42.98 Y17.5
G1X43.42 Y17.54
G1X43.85 Y17.62
G1X44.28 Y17.74
G1X44.7 Y17.89
G1X45.16 Y18.13
G1X45.59 Y18.41
G1X46 Y18.74
G1X46.36 Y19.12
G1X46.71 Y19.57
G1X47.02 Y20.04
G1X47.29 Y20.54
G1X47.52 Y21.06
G1X47.7 Y21.57
G1X47.86 Y22.09
G1X47.98 Y22.62
G1X48.08 Y23.15
G1X48.2 Y24.01
G1X48.28 Y24.87
G1X48.33 Y25.74
G1 Y26.61
G1 Y27.46
G1X48.29 Y28.3
G1X48.22 Y29.15
G1X48.11 Y29.99
G1X47.94 Y30.83
G1X47.7 Y31.66
G1X47.38 Y32.45
G1X47 Y33.22
G1X46.7 Y33.69
G1X46.36 Y34.12
G1X45.97 Y34.51
G1X45.55 Y34.85
G1X45.08 Y35.15
G1X44.59 Y35.38
G1X44.07 Y35.56
G1X43.53 Y35.67
G1X42.93 Y35.74
G1X42.33 Y35.75
G1X41.73 Y35.71
G1X41.13 Y35.61
G1X40.72 Y35.5
G1X40.33 Y35.35
G1X39.95 Y35.17
G1X39.59 Y34.95
G1X39.17 Y34.63
G1X38.79 Y34.27
G1X38.44 Y33.87
G1X38.13 Y33.43
G1X37.83 Y32.91
G1X37.56 Y32.36
G1X37.34 Y31.8
G1X37.17 Y31.22
G1X37.03 Y30.62
G1X36.91 Y30.03
G1X36.82 Y29.42
G1X36.76 Y28.82
G1X36.69 Y27.68
G1X36.66 Y26.54
G1X36.69 Y25.4
G1X36.78 Y24.27
G1X36.86 Y23.54
G1X36.99 Y22.82
G1X37.15 Y22.11
G1X37.36 Y21.41
G1X37.53 Y20.94
G1X37.73 Y20.49
G1X37.96 Y20.05
M9
M05
G90
; return to user-defined finish pos
G0 X0 Y0 F0
